X:2708
T:The Reel of Five
P:Lord of the Isles
C:Kerr's Collection
R:Medley (1x64)
B:RSCDS 27-8
Z:Anselm Lingnau <anselm@strathspey.org>
M:C
L:1/8
K:G
|:d|"G"g<g d>B G2 G>F|"Am"E<A A>G "D7"F<D D>d|\
    "G"g<g d>B G2 G>F|"Am"E>A "D7"G/F/E/D/ "G"G2-G:|
|:B|"G"d>B g>f e>d c>B|"Am"c>A a>g "D7"f<d d>f|\
    "G"g<g d>B "C"c>d "G"B>G|"Am"E>A "D7"G/F/E/D/ "G"G2-G:|
P:Miss Caroline Thomson's Reel
C:Alexander Leburn
K:C
|:e|"C"c2ec "G"d2fd|"C"c2ec "G7"dBGB|"C"c2ec "F"cefa|"G7"gfed "C"c2 c:|
e/f/|"C"gecg "F"afdf|"Am"ecAc "G"BGGf|"C"gecg "F"afdf|"G7"gfed "C"c2 ce/f/|
     "C"gecg "F"afdf|"Am"ecAc "G"BGGf|\
                         "G/B"fd "C"ec "G/D"dB GB|"F"Ac"G"Bd "C"c2 c|]
